X:2472
T:Camptown Races
S:Eoghan O'Sullivan, Gerry Harrington
N:IrTrad, 6/99
R:slide
M:12/8
L:1/8
K:A
efe ece f2 e cBA|c2 B BAB cec BAB|cee ece f2 e cBA|
1BAB c2 B A2 B c2 d:|2BAB c2 B A2 B c2 B|:
~A3 c2 e a3 aga|bag agf e3 c2 d|e2 e e2 e efe cBA|
1BAB c2 B A2 B c2 B:|2BAB c2 B Ace a3||


